dist/svgs/crypto-icons/icons/sia.svg

<?xml version="1.0" encoding="UTF-8" standalone="yes"?>
<svg xmlns="http://www.w3.org/2000/svg" xmlns:xlink="http://www.w3.org/1999/xlink" width="512px" height="512px" viewBox="0 0 384 384" version="1.1">
  <g id="surface1">
    <path style=" stroke:none;fill-rule:nonzero;fill:rgb(0%,0%,0%);fill-opacity:1;" d="M 67.328125 60.558594 C 67.664062 60.898438 68.003906 61.238281 68.511719 61.574219 L 67.328125 60.558594 M 74.09375 53.964844 L 75.109375 54.976562 C 74.769531 54.640625 74.433594 54.132812 74.09375 53.964844 C 74.09375 53.792969 74.09375 53.964844 74.09375 53.964844 "/>
    <path style=" stroke:none;fill-rule:nonzero;fill:rgb(0%,0%,0%);fill-opacity:1;" d="M 323.777344 149.371094 C 287.070312 126.363281 241.226562 123.996094 202.488281 142.097656 C 182.019531 151.402344 157.320312 148.019531 139.730469 132.285156 C 138.882812 131.609375 138.207031 130.933594 137.359375 130.085938 L 59.546875 52.269531 C 54.300781 46.519531 52.101562 38.90625 52.949219 31.632812 C 53.285156 30.109375 53.457031 28.417969 53.457031 26.726562 C 53.285156 11.839844 41.277344 0 26.558594 0 C 11.839844 0 0 12.011719 0 26.558594 C 0 41.277344 11.839844 53.117188 26.558594 53.117188 C 28.25 53.117188 29.941406 52.949219 31.464844 52.609375 C 38.90625 52.101562 46.519531 54.132812 52.441406 59.207031 L 130.59375 137.359375 C 131.269531 138.035156 131.777344 138.714844 132.285156 139.390625 C 148.019531 156.984375 151.230469 181.679688 141.929688 202.148438 C 123.65625 240.71875 126.027344 286.730469 149.203125 323.441406 C 154.109375 331.390625 160.027344 338.832031 166.792969 345.601562 C 188.617188 367.421875 217.542969 380.277344 246.132812 382.816406 C 253.574219 383.492188 360.148438 383.152344 360.148438 383.152344 C 365.898438 383.152344 371.820312 380.277344 375.878906 376.21875 C 379.941406 372.160156 383.324219 365.5625 383.324219 359.808594 L 383.324219 256.621094 C 383.324219 251.546875 382.140625 244.101562 382.140625 243.085938 C 379.601562 214.5 367.421875 188.617188 345.601562 166.792969 C 339.003906 160.199219 331.558594 154.277344 323.777344 149.371094 Z M 330.542969 235.8125 C 333.589844 250.53125 333.757812 256.957031 333.757812 257.972656 L 333.757812 310.246094 C 333.757812 315.996094 331.222656 322.761719 327.160156 326.824219 C 323.101562 330.882812 316.335938 333.421875 310.582031 333.421875 L 259.835938 333.421875 C 258.820312 333.421875 246.976562 333.25 235.980469 330.207031 C 223.632812 326.824219 212.128906 320.226562 202.488281 310.582031 C 172.546875 280.640625 172.546875 232.089844 202.488281 202.148438 C 232.429688 172.207031 281.148438 172.207031 310.921875 202.148438 C 320.394531 211.960938 328.007812 223.296875 330.542969 235.8125 Z M 330.542969 235.8125 "/>
  </g>
</svg>

<svg xmlns="http://www.w3.org/2000/svg" viewBox="0 0 384 384"><path d="M67.328 60.559c.336.34.676.68 1.184 1.015l-1.184-1.015m6.766-6.594l1.015 1.012c-.34-.336-.675-.844-1.015-1.012 0-.172 0 0 0 0"/><path d="M323.777 149.371c-36.707-23.008-82.55-25.375-121.289-7.273-20.468 9.304-45.168 5.922-62.758-9.813-.847-.676-1.523-1.351-2.37-2.2L59.546 52.27c-5.246-5.75-7.445-13.364-6.598-20.637.336-1.524.508-3.215.508-4.906C53.285 11.84 41.277 0 26.559 0 11.839 0 0 12.012 0 26.559a26.494 26.494 0 0026.559 26.558c1.691 0 3.382-.168 4.906-.508 7.441-.507 15.055 1.524 20.976 6.598l78.153 78.152c.676.676 1.183 1.356 1.691 2.032 15.735 17.593 18.945 42.289 9.645 62.757-18.274 38.57-15.903 84.582 7.273 121.293 4.906 7.95 10.824 15.391 17.59 22.16 21.824 21.82 50.75 34.676 79.34 37.215 7.441.676 114.015.336 114.015.336 5.75 0 11.672-2.875 15.73-6.933 4.063-4.059 7.446-10.656 7.446-16.41V256.62c0-5.074-1.183-12.52-1.183-13.535-2.54-28.586-14.72-54.469-36.54-76.293a126.738 126.738 0 00-21.824-17.422zm6.766 86.441c3.047 14.72 3.215 21.145 3.215 22.16v52.274c0 5.75-2.535 12.516-6.598 16.578-4.058 4.059-10.824 6.598-16.578 6.598h-50.746c-1.016 0-12.86-.172-23.856-3.215-12.347-3.383-23.851-9.98-33.492-19.625-29.941-29.941-29.941-78.492 0-108.434 29.942-29.941 78.66-29.941 108.434 0 9.473 9.813 17.086 21.149 19.621 33.665zm0 0"/></svg>
